!!!OTL: ES WAREN ZWEI GESPIELEN
!!!ARE: Europa, Mitteleuropa, Deutschland, Schlesien, Breslau; Liegnitz
!!!SCT: E0070
!!!YEM: Copyright 1995, estate of Helmut Schaffrath.
**kern
*ICvox
*Ivox
*M3/4
*k[b-]
*F:
{8c
=1
8f
8a
4cc
4g
=2
16b-
8.a
4g
8r}
{8cc
=3
8cc
8ee
4ff
4dd
=4
16ff
8.ee
4cc
8r}
{8cc
=5
8cc
8ee
4ff
4gg
=6
8ff
8dd
4cc
8r}
{8a
=7
8b-
8dd
4cc
4g
=8
16b-
8.a
4f
8r}
{8cc
=9
8cc
8ee
4ff
4gg
=10
8ff
8dd
4cc
8r}
{8a
=11
8b-
8dd
4cc
4g
=12
16b-
8.a
4f
8r}
==
!!!AGN: erzaehlendes Volks - Lied, Sage, Liebe, Ballade ?
!!!ONB: ESAC (Essen Associative Code) Database: ERK1
!!!AMT: simple triple
!!!AIN: vox
!!!EED: Helmut Schaffrath
!!!EEV: 1.0
*-
